symbols/web/add_to_photos/materialsymbolsoutlined/add_to_photos_wght100gradN25_24px.svg

<svg xmlns="http://www.w3.org/2000/svg" height="24" width="24"><path d="M12.975 13.35h.65v-2.975H16.6v-.65h-2.975V6.75h-.65v2.975H10v.65h2.975ZM8.1 16.7q-.625 0-1.038-.412-.412-.413-.412-1.038V4.85q0-.6.412-1.013.413-.412 1.038-.412h10.4q.6 0 1.013.412.412.413.412 1.013v10.4q0 .625-.412 1.038-.413.412-1.013.412Zm0-.65h10.4q.3 0 .55-.25.25-.25.25-.55V4.85q0-.3-.25-.55-.25-.25-.55-.25H8.1q-.3 0-.55.25-.25.25-.25.55v10.4q0 .3.25.55.25.25.55.25Zm-2.575 3.225q-.625 0-1.037-.413-.413-.412-.413-1.037V6.8h.65v11.025q0 .3.25.55.25.25.55.25H16.55v.65ZM7.3 4.05v12-12Z"/></svg>

<svg xmlns="http://www.w3.org/2000/svg" height="24" width="24"><path d="M12.975 13.35H13.625V10.375H16.6V9.725H13.625V6.75H12.975V9.725H10V10.375H12.975ZM8.1 16.7Q7.475 16.7 7.062 16.288Q6.65 15.875 6.65 15.25V4.85Q6.65 4.25 7.062 3.837Q7.475 3.425 8.1 3.425H18.5Q19.1 3.425 19.513 3.837Q19.925 4.25 19.925 4.85V15.25Q19.925 15.875 19.513 16.288Q19.1 16.7 18.5 16.7ZM8.1 16.05H18.5Q18.8 16.05 19.05 15.8Q19.3 15.55 19.3 15.25V4.85Q19.3 4.55 19.05 4.3Q18.8 4.05 18.5 4.05H8.1Q7.8 4.05 7.55 4.3Q7.3 4.55 7.3 4.85V15.25Q7.3 15.55 7.55 15.8Q7.8 16.05 8.1 16.05ZM7.3 4.05Q7.3 4.05 7.3 4.275Q7.3 4.5 7.3 4.85V15.25Q7.3 15.6 7.3 15.825Q7.3 16.05 7.3 16.05Q7.3 16.05 7.3 15.825Q7.3 15.6 7.3 15.25V4.85Q7.3 4.5 7.3 4.275Q7.3 4.05 7.3 4.05ZM5.525 19.275Q4.9 19.275 4.488 18.862Q4.075 18.45 4.075 17.825V6.8H4.725V17.825Q4.725 18.125 4.975 18.375Q5.225 18.625 5.525 18.625H16.55V19.275Z"/></svg>
